icons/circle/48/distributor-logo-void.svg

<svg version="1.1" viewBox="0 0 48 48" xmlns="http://www.w3.org/2000/svg">
 <defs>
  <linearGradient id="linearGradient3764" x1="1" x2="47" gradientTransform="matrix(0 -1 1 0 -1.5e-6 48)" gradientUnits="userSpaceOnUse">
   <stop style="stop-color:#caf8c4" offset="0"/>
   <stop style="stop-color:#dafad6" offset="1"/>
  </linearGradient>
 </defs>
 <path d="m31.25 2.375c8.615 3.154 14.75 11.417 14.75 21.13 0 12.426-10.07 22.5-22.5 22.5-9.708 0-17.971-6.135-21.12-14.75a23 23 0 0 0 44.875 -7 23 23 0 0 0 -16 -21.875z" style="opacity:.2"/>
 <path d="m36.31 5c5.859 4.062 9.688 10.831 9.688 18.5 0 12.426-10.07 22.5-22.5 22.5-7.669 0-14.438-3.828-18.5-9.688 1.037 1.822 2.306 3.499 3.781 4.969 4.085 3.712 9.514 5.969 15.469 5.969 12.703 0 23-10.298 23-23 0-5.954-2.256-11.384-5.969-15.469-1.469-1.475-3.147-2.744-4.969-3.781zm4.969 3.781c3.854 4.113 6.219 9.637 6.219 15.719 0 12.703-10.297 23-23 23-6.081 0-11.606-2.364-15.719-6.219 4.16 4.144 9.883 6.719 16.219 6.719 12.703 0 23-10.298 23-23 0-6.335-2.575-12.06-6.719-16.219z" style="opacity:.05"/>
 <path d="m41.28 8.781c3.712 4.085 5.969 9.514 5.969 15.469 0 12.703-10.297 23-23 23-5.954 0-11.384-2.256-15.469-5.969 4.113 3.854 9.637 6.219 15.719 6.219 12.703 0 23-10.298 23-23 0-6.081-2.364-11.606-6.219-15.719z" style="opacity:.1"/>
 <path d="m24 1c12.703 0 23 10.297 23 23s-10.297 23-23 23-23-10.297-23-23 10.297-23 23-23z" style="fill:url(#linearGradient3764)"/>
 <path d="m40.03 7.531c3.712 4.084 5.969 9.514 5.969 15.469 0 12.703-10.297 23-23 23-5.954 0-11.384-2.256-15.469-5.969 4.178 4.291 10.01 6.969 16.469 6.969 12.703 0 23-10.298 23-23 0-6.462-2.677-12.291-6.969-16.469z" style="opacity:.1"/>
 <path d="m25 10c-3.113 9.697e-4 -6.1478 0.97556-8.6836 2.7812l3.6133 3.6133c1.5354-0.90886 3.2861-1.3935 5.0703-1.3945 5.5228-3e-3 10.003 4.4772 10 10-1e-3 1.7842-0.48568 3.5349-1.3945 5.0703l3.6074 3.6074c1.8066-2.5335 2.7853-5.5661 2.7871-8.6777 0.0047-8.2843-6.7157-15.003-15-15zm-12.213 6.3223c-1.8066 2.5335-2.7853 5.5661-2.7871 8.6777-0.0047 8.2843 6.7157 15.003 15 15 3.113-9.7e-4 6.1478-0.97556 8.6836-2.7812l-3.6133-3.6133c-1.5354 0.90886-3.2861 1.3935-5.0703 1.3945-5.5228 3e-3 -10.003-4.4772-10-10 1e-3 -1.7842 0.48568-3.5349 1.3945-5.0703zm12.213 3.6777a5 5 0 0 0 -5 5 5 5 0 0 0 5 5 5 5 0 0 0 5 -5 5 5 0 0 0 -5 -5z" style="opacity:.1"/>
 <path d="m11.787 15.322c-1.8066 2.5335-2.7853 5.5661-2.7871 8.6777-0.0047 8.2843 6.7157 15.003 15 15 3.113-9.7e-4 6.1478-0.97556 8.6836-2.7812l-3.6133-3.6133c-1.5354 0.90886-3.2861 1.3935-5.0703 1.3945-5.5228 3e-3 -10.003-4.4772-10-10 1e-3 -1.7842 0.48568-3.5349 1.3945-5.0703z" style="fill:#437d5e"/>
 <path d="m24 9c-3.113 9.7e-4 -6.1478 0.97556-8.6836 2.7813l3.6133 3.6133c1.5354-0.90886 3.2861-1.3935 5.0703-1.3945 5.5228-3e-3 10.003 4.4772 10 10-1e-3 1.7842-0.48568 3.5349-1.3945 5.0703l3.6074 3.6074c1.8066-2.5335 2.7853-5.5661 2.7871-8.6777 0.0047-8.2843-6.7157-15.003-15-15zm0 10a5 5 0 0 0 -5 5 5 5 0 0 0 5 5 5 5 0 0 0 5 -5 5 5 0 0 0 -5 -5z" style="fill:#a6bea6"/>
</svg>

<svg viewBox="0 0 48 48" xmlns="http://www.w3.org/2000/svg">
  <defs>
    <linearGradient id="a" x1="1" x2="47" gradientTransform="rotate(-90 24 24)" gradientUnits="userSpaceOnUse">
      <stop offset="0" stop-color="#caf8c4"/>
      <stop offset="1" stop-color="#dafad6"/>
    </linearGradient>
  </defs>
  <path d="M31.25 2.375C39.865 5.529 46 13.792 46 23.505c0 12.426-10.07 22.5-22.5 22.5-9.708 0-17.971-6.135-21.12-14.75a23 23 0 0 0 44.875-7 23 23 0 0 0-16-21.875z" opacity=".2"/>
  <path d="M36.31 5c5.859 4.062 9.688 10.831 9.688 18.5 0 12.426-10.07 22.5-22.5 22.5-7.669 0-14.438-3.828-18.5-9.688a23.24 23.24 0 0 0 3.781 4.969 22.923 22.923 0 0 0 15.469 5.969c12.703 0 23-10.298 23-23a22.92 22.92 0 0 0-5.969-15.469A23.216 23.216 0 0 0 36.31 5zm4.969 3.781A22.911 22.911 0 0 1 47.498 24.5c0 12.703-10.297 23-23 23a22.909 22.909 0 0 1-15.719-6.219C12.939 45.425 18.662 48 24.998 48c12.703 0 23-10.298 23-23 0-6.335-2.575-12.06-6.719-16.219z" opacity=".05"/>
  <path d="M41.28 8.781a22.923 22.923 0 0 1 5.969 15.469c0 12.703-10.297 23-23 23A22.92 22.92 0 0 1 8.78 41.281 22.911 22.911 0 0 0 24.499 47.5c12.703 0 23-10.298 23-23A22.909 22.909 0 0 0 41.28 8.781z" opacity=".1"/>
  <path d="M24 1c12.703 0 23 10.297 23 23S36.703 47 24 47 1 36.703 1 24 11.297 1 24 1z" fill="url(#a)"/>
  <path d="M40.03 7.531A22.922 22.922 0 0 1 45.999 23c0 12.703-10.297 23-23 23A22.92 22.92 0 0 1 7.53 40.031C11.708 44.322 17.54 47 23.999 47c12.703 0 23-10.298 23-23 0-6.462-2.677-12.291-6.969-16.469z" opacity=".1"/>
  <path d="M25 10a14.982 14.982 0 0 0-8.684 2.781l3.614 3.613A9.968 9.968 0 0 1 25 15c5.523-.003 10.003 4.477 10 10a9.969 9.969 0 0 1-1.395 5.07l3.608 3.608A14.967 14.967 0 0 0 40 25c.005-8.284-6.716-15.003-15-15zm-12.213 6.322A14.967 14.967 0 0 0 10 25c-.005 8.284 6.716 15.003 15 15a14.982 14.982 0 0 0 8.684-2.781l-3.614-3.613A9.968 9.968 0 0 1 25 35c-5.523.003-10.003-4.477-10-10a9.969 9.969 0 0 1 1.394-5.07zM25 20a5 5 0 0 0-5 5 5 5 0 0 0 5 5 5 5 0 0 0 5-5 5 5 0 0 0-5-5z" opacity=".1"/>
  <path d="M11.787 15.322A14.967 14.967 0 0 0 9 24c-.005 8.284 6.716 15.003 15 15a14.982 14.982 0 0 0 8.684-2.782l-3.614-3.613A9.968 9.968 0 0 1 24 34c-5.523.003-10.003-4.478-10-10a9.969 9.969 0 0 1 1.394-5.07z" fill="#437d5e"/>
  <path d="M24 9a14.981 14.981 0 0 0-8.684 2.781l3.614 3.614A9.968 9.968 0 0 1 24 14c5.523-.003 10.003 4.477 10 10a9.969 9.969 0 0 1-1.395 5.07l3.608 3.608A14.967 14.967 0 0 0 39 24c.005-8.284-6.716-15.003-15-15zm0 10a5 5 0 0 0-5 5 5 5 0 0 0 5 5 5 5 0 0 0 5-5 5 5 0 0 0-5-5z" fill="#a6bea6"/>
</svg>
